X:1
T:D Major Daniel Read, 1801 (Revised 1807)
T:Isaac Watts, 1719 (Psalm 84)   66. 66. 44. 44.
T:Edenton No copyright.  Transcribed from The Columbian Harmonist, 1807.
%%score [ 1 2 3 4 ]
L:1/8
M:2/4
K:D
V:1 treble nm="Tr." snm="Tr."
V:2 treble nm="C." snm="C."
V:3 treble-8 nm="T." snm="T."
V:4 bass nm="B." snm="B."
V:1
 A2 | d2 dc | B2 A2 | A4 | z2 Ad | ce df | A2 ^G2 | A3 A | d2 A2 | BA GF | F2 E z | z4 | z4 | %13
w: |||||||* The|dwel- lings|of * Thy *|love, *|||
 z2 z F | A2 A2 | Ad fd | df gf | e2 z A | FA dA | df eg | fd e2 | d4 |] %22
w: |||||||||
V:2
 F2 | F2 F2 | G2 E2 | F4 | z2 F2 | A2 F2 | ED EF | E3 z | z4 | z4 | z4 | z4 | z4 | z2 z D | F2 F2 | %15
w: 1.~Lord|of the|worlds a-|bove,|How|plea- sant|and * how *|fair,||||||To|Thine a-|
 FA AF | B2 B2 | A2 z A | A2 A2 | AF GB | A2 G2 | F4 |] %22
w: bode * My *|heart as-|pires, With|warm de-|sires, * To *|see my|God.|
V:3
 D2 | FA AF | d2 c2 | d4 | z2 df | ec Ad | c2 B2 | A3 z | z4 | z4 | z2 z A | Bd ce | A2 c2 | d3 A | %14
w: ||||||||||Thine|earth- * ly *|tem- ples|are! *|
 d2 d2 | d2 df | fd cd | e2 z d | f2 f2 | fa ge | d2 c2 | d4 |] %22
w: ||||||||
V:4
 D,2 | D,2 D,2 | G,2 A,2 | D,4 | z2 D,2 | A,2 D,2 | E,2 E,2 | A,,3 D, | D,2 D,2 | G,F, E,D, | %10
w: |||||||* The|dwel- lings|of * Thy *|
 [A,,A,]3 A, | D2 G,2 | A,2 A,,2 | D,3 D, | D,2 D,2 | D,2 F,2 | G,F, E,D, | A,2 z D, | D2 D2 | %19
w: love, *|||||||||
 D2 G,2 | A,2 A,,2 | D,4 |] %22
w: |||

